dist/assets/img/artifact-parts/termination/message_1.svg

<svg width="443" height="349" viewBox="0 0 443 349" fill="none" xmlns="http://www.w3.org/2000/svg">
<g filter="url(#filter0_di_1464_63027)">
<path fill-rule="evenodd" clip-rule="evenodd" d="M106.883 40.7463C49.0628 66.1314 37.2213 137.274 57.4263 197.547C57.4561 197.636 57.4859 197.724 57.5157 197.813C58.0359 199.361 58.0971 201.036 57.5875 202.588C53.8349 214.016 48.5154 218.249 41.0206 224.213C40.4638 224.656 40.6469 225.528 41.3479 225.65C46.2246 226.5 51.476 225.201 56.1967 223.098C60.9297 220.989 66.8633 222.622 69.0483 227.321C87.3013 266.57 113.351 289.307 166.768 294.85C234.391 301.867 360.26 294.85 387.896 207.41C408.332 142.748 414.46 86.1109 356.574 52.2861C310.553 25.3936 154.621 19.7881 106.883 40.7463Z" fill="white"/>
</g>
<defs>
<filter id="filter0_di_1464_63027" x="0.693359" y="0" width="441.699" height="348.889" filterUnits="userSpaceOnUse" color-interpolation-filters="sRGB">
<feFlood flood-opacity="0" result="BackgroundImageFix"/>
<feColorMatrix in="SourceAlpha" type="matrix" values="0 0 0 0 0 0 0 0 0 0 0 0 0 0 0 0 0 0 127 0" result="hardAlpha"/>
<feOffset dy="12"/>
<feGaussianBlur stdDeviation="20"/>
<feComposite in2="hardAlpha" operator="out"/>
<feColorMatrix type="matrix" values="0 0 0 0 0.909804 0 0 0 0 0.313726 0 0 0 0 0.470588 0 0 0 1 0"/>
<feBlend mode="normal" in2="BackgroundImageFix" result="effect1_dropShadow_1464_63027"/>
<feBlend mode="normal" in="SourceGraphic" in2="effect1_dropShadow_1464_63027" result="shape"/>
<feColorMatrix in="SourceAlpha" type="matrix" values="0 0 0 0 0 0 0 0 0 0 0 0 0 0 0 0 0 0 127 0" result="hardAlpha"/>
<feOffset dy="-4"/>
<feGaussianBlur stdDeviation="4"/>
<feComposite in2="hardAlpha" operator="arithmetic" k2="-1" k3="1"/>
<feColorMatrix type="matrix" values="0 0 0 0 0.909804 0 0 0 0 0.313726 0 0 0 0 0.470588 0 0 0 0.16 0"/>
<feBlend mode="normal" in2="shape" result="effect2_innerShadow_1464_63027"/>
</filter>
</defs>
</svg>

<svg width="443" height="349" viewBox="0 0 443 349" fill="none" xmlns="http://www.w3.org/2000/svg"><g filter="url(#filter0_di_1464_63027)"><path fill-rule="evenodd" clip-rule="evenodd" d="M106.883 40.746c-57.82 25.385-69.662 96.528-49.457 156.801l.09.266c.52 1.548.581 3.223.072 4.775-3.753 11.428-9.073 15.661-16.567 21.625-.557.443-.374 1.315.327 1.437 4.877.85 10.128-.449 14.849-2.552 4.733-2.109 10.666-.476 12.851 4.223 18.253 39.249 44.303 61.986 97.72 67.529 67.623 7.017 193.492 0 221.128-87.44 20.436-64.662 26.564-121.3-31.322-155.124-46.021-26.892-201.953-32.498-249.691-11.54z" fill="#fff"/></g><defs><filter id="filter0_di_1464_63027" x=".693" y="0" width="441.699" height="348.889" filterUnits="userSpaceOnUse" color-interpolation-filters="sRGB"><feFlood flood-opacity="0" result="BackgroundImageFix"/><feColorMatrix in="SourceAlpha" values="0 0 0 0 0 0 0 0 0 0 0 0 0 0 0 0 0 0 127 0" result="hardAlpha"/><feOffset dy="12"/><feGaussianBlur stdDeviation="20"/><feComposite in2="hardAlpha" operator="out"/><feColorMatrix values="0 0 0 0 0.909804 0 0 0 0 0.313726 0 0 0 0 0.470588 0 0 0 1 0"/><feBlend in2="BackgroundImageFix" result="effect1_dropShadow_1464_63027"/><feBlend in="SourceGraphic" in2="effect1_dropShadow_1464_63027" result="shape"/><feColorMatrix in="SourceAlpha" values="0 0 0 0 0 0 0 0 0 0 0 0 0 0 0 0 0 0 127 0" result="hardAlpha"/><feOffset dy="-4"/><feGaussianBlur stdDeviation="4"/><feComposite in2="hardAlpha" operator="arithmetic" k2="-1" k3="1"/><feColorMatrix values="0 0 0 0 0.909804 0 0 0 0 0.313726 0 0 0 0 0.470588 0 0 0 0.16 0"/><feBlend in2="shape" result="effect2_innerShadow_1464_63027"/></filter></defs></svg>
